!!!COM: Fanny (Mendelssohn) Hensel
!!!CNT: Deutsch
!!!TXO: Deutsch
!!!OTL: "Die Sommernacht"
!!!LYR: Klopstock, F. G.
!!!OPR: 
!!!OPS: Op. 
!!!ONM: No. 
!!!ENC: Emily Thomas
!!!YOR: Hensel: 16 Songs Fanny Mendelssohn Hensel
!!!YOR: Alfred, 1995
!!!ODT: 1827/
!!NB: Original key E flat Major.
**kern	**silbe
=1	=1
*clefG2	*
*k[b-]	*
*M9/8	*
*MM[Largo maestoso]	*
4r	.
8r	.
4r	.
8r	.
{4ff	{Wenn
8ee	der
=2	=2
4.ee	Schim-
4dd	-mer
8r	.
4dd	von
8cc	dem
=3	=3
4.cc	Mon-
4b-	-de
8r	.
4g	nun
8f	her-
=4	=4
4.ee}	-ab}
4r	.
8r	.
{4e	{in
8f	die
=5	=5
4.f#	Wa2l-
4g	-der
8r	.
4g	sich
8a	er-
=6	=6
4.c	giesst,
4b-}	|}
8r	.
{4a	{und
8g	Ge-
=7	=7
4.ff	-ru2-
4ee	-che
8r	.
4dd	mit
8c	den
=8	=8
4.ff	Du2f-
4cc}	-ten}
8r	.
{4cc	von
8dd	der
=9	=9
4.ee-	Lin-
4b-	-de
8r	.
4b-	in
8cc	den
=10	=10
4.dd	Ku2h-
4dd	-lung-
8b-	-en
4.a}	when;}
=11	=11
4r	.
8r	.
4r	.
8r	.
{4dd	{so
8cc	um-
=12	=12
4.cc	schat-
4.b-	-ten
4g	mich
8f	Ge-
=13	=13
4.f	-dan-
4.e-	-ken
4g	an
8e-	das
=14	=14
[4.c#	Grab
4.c#]}	|}
{4c#	{der
8d	Ge-
=15	=15
4.d#	lieb-
4e	-ten,
8r	.
4e	und
8g	ich
=16	=16
2.b-}	seh'}
{4a	{in
8g	dem
=17	=17
4.dd	Wal-
4cc#	-de
8r	.
4cc#	Nur
8dd	es
=18	=18
4.dd#	da2m-
4ee}	-mern,}
8r	.
{4a	{und
8a	es
=19	=19
4.dd	weht
4.dd	mir
4cc	von
8b-	der
=20	=20
4.a	Blu2-
4.g#	-te
4r	.
8a	nicht
=21	=21
4.a}	her.}
4r	.
8r	.
4r	.
8r	.
=22	=22
4r	.
8r	.
4r	.
8r	.
{4ff	{Ich
8ee	ge-
=23	=23
4.ee	-noss
4dd	einst,
8r	.
4dd	O
8cc	ihr
=24	=24
4.cc	To-
4.b-	-ten,
8a	es
8b-	|
8g	mit
=25	=25
4.e}	euch!}
4r	.
8r	.
{4e	{Wie
8f	um-
=26	=26
4.f#	-weh-
4.g	-ten
4g	uns
8a	der
=27	=27
2.b-}	Duft}
{4a	{und
8g	die
=28	=28
4.ff	Ku2h-
4ee	-lung,
8r	.
8ee	wie
8dd	|
8cc	ver-
=29	=29
4.ff	-scho2nt
4.cc	warst
8cc	von
8b-	|
8a	dem
=30	=30
4.ee	Mon-
4dd}	-de,}
8r	.
{8dd	{du,
8b-	|
8g	o
=31	=31
4.f	scho2-
4.e	-ne
4r	.
8f	Na-
=32	=32
4.f}	-tur!}
4r	.
8r	.
4r	.
8r	.
==	==
*-	*-
